svg/country-4x3/sc.svg

<?xml version="1.0" encoding="UTF-8" standalone="no"?>
<!-- Created with Sodipodi ("http://www.sodipodi.com/") -->

<!-- /Creative Commons Public Domain -->

<!--
<rdf:RDF xmlns="http://web.resource.org/cc/"
    xmlns:dc="http://purl.org/dc/elements/1.1/"
    xmlns:rdf="http://www.w3.org/1999/02/22-rdf-syntax-ns#">
<Work rdf:about="">
   <dc:title>SVG graphic of Seychelles flag</dc:title>
   <dc:rights><Agent>
      <dc:title>Russell Cloran</dc:title>
   </Agent></dc:rights>
   <license rdf:resource="http://web.resource.org/cc/PublicDomain" />
</Work>

<License rdf:about="http://web.resource.org/cc/PublicDomain">
   <permits rdf:resource="http://web.resource.org/cc/Reproduction" />
   <permits rdf:resource="http://web.resource.org/cc/Distribution" />
   <permits rdf:resource="http://web.resource.org/cc/DerivativeWorks" />
</License>

</rdf:RDF>
-->

<svg
   xmlns:dc="http://purl.org/dc/elements/1.1/"
   xmlns:cc="http://creativecommons.org/ns#"
   xmlns:rdf="http://www.w3.org/1999/02/22-rdf-syntax-ns#"
   xmlns:svg="http://www.w3.org/2000/svg"
   xmlns="http://www.w3.org/2000/svg"
   xmlns:sodipodi="http://sodipodi.sourceforge.net/DTD/sodipodi-0.dtd"
   xmlns:inkscape="http://www.inkscape.org/namespaces/inkscape"
   version="1"
   x="0.00000000"
   y="0.00000000"
   width="640"
   height="480"
   id="svg548"
   inkscape:version="0.48.1 r9760"
   sodipodi:docname="sc.svg">
  <sodipodi:namedview
     pagecolor="#ffffff"
     bordercolor="#666666"
     borderopacity="1"
     objecttolerance="10"
     gridtolerance="10"
     guidetolerance="10"
     inkscape:pageopacity="0"
     inkscape:pageshadow="2"
     inkscape:window-width="1280"
     inkscape:window-height="746"
     id="namedview3041"
     showgrid="false"
     inkscape:zoom="0.51505556"
     inkscape:cx="496.06299"
     inkscape:cy="248.03149"
     inkscape:window-x="0"
     inkscape:window-y="24"
     inkscape:window-maximized="1"
     inkscape:current-layer="svg548" />
  <metadata
     id="metadata3043">
    <rdf:RDF>
      <cc:Work
         rdf:about="">
        <dc:format>image/svg+xml</dc:format>
        <dc:type
           rdf:resource="http://purl.org/dc/dcmitype/StillImage" />
      </cc:Work>
    </rdf:RDF>
  </metadata>
  <defs
     id="defs550">
    <clipPath
       clipPathUnits="userSpaceOnUse"
       id="clipPath5206">
      <rect
         id="rect5208"
         height="496.06342"
         x="0"
         style="fill:#000000;fill-opacity:0.67000002;stroke:none"
         width="512"
         y="-0.00014465206" />
    </clipPath>
    <clipPath
       clipPathUnits="userSpaceOnUse"
       id="clipPath15459">
      <rect
         id="rect15461"
         height="512"
         x="0"
         style="fill:#000000;fill-opacity:0.67000002;stroke:none"
         width="682.66663"
         y="1.1990595e-05" />
    </clipPath>
  </defs>
  <g
     id="flag"
     transform="matrix(0.93750002,0,0,0.93750002,0,-1.1241183e-5)"
     clip-path="url(#clipPath15459)"
     inkscape:label="#g15402">
    <rect
       width="992.12598"
       height="511.99945"
       x="0"
       y="1.3058524e-05"
       style="font-size:12px;fill:#ff0000;fill-rule:evenodd;stroke-width:1pt"
       id="rect551" />
    <path
       inkscape:connector-curvature="0"
       d="M 0,512 992.12365,341.3337 992.12365,512 0,512 z"
       style="font-size:12px;fill:#009900;fill-rule:evenodd;stroke-width:1pt"
       id="path552" />
    <path
       inkscape:connector-curvature="0"
       d="m 0,512 992.12365,-341.33357 0,170.66727 L 0,512 z"
       style="font-size:12px;fill:#ffffff;fill-rule:evenodd;stroke-width:1pt"
       id="path553" />
    <path
       inkscape:connector-curvature="0"
       d="M 0,512 0,1.3355017e-4 l 330.70882,0 L 0,512 z"
       style="font-size:12px;fill:#000099;fill-rule:evenodd;stroke-width:1pt"
       id="path554" />
    <path
       inkscape:connector-curvature="0"
       d="M 0,512 330.70882,1.3355017e-4 l 330.70788,0 L 0,512 z"
       style="font-size:12px;fill:#ffff00;fill-rule:evenodd;stroke-width:1pt"
       id="path555" />
  </g>
</svg>

<?xml version="1.0" encoding="UTF-8" standalone="no"?>
<!-- Created with Sodipodi ("http://www.sodipodi.com/") -->
<!-- /Creative Commons Public Domain -->
<!--
<rdf:RDF xmlns="http://web.resource.org/cc/"
    xmlns:dc="http://purl.org/dc/elements/1.1/"
    xmlns:rdf="http://www.w3.org/1999/02/22-rdf-syntax-ns#">
<Work rdf:about="">
   <dc:title>SVG graphic of Seychelles flag</dc:title>
   <dc:rights><Agent>
      <dc:title>Russell Cloran</dc:title>
   </Agent></dc:rights>
   <license rdf:resource="http://web.resource.org/cc/PublicDomain" />
</Work>

<License rdf:about="http://web.resource.org/cc/PublicDomain">
   <permits rdf:resource="http://web.resource.org/cc/Reproduction" />
   <permits rdf:resource="http://web.resource.org/cc/Distribution" />
   <permits rdf:resource="http://web.resource.org/cc/DerivativeWorks" />
</License>

</rdf:RDF>
-->
<svg id="svg548" xmlns:rdf="http://www.w3.org/1999/02/22-rdf-syntax-ns#" xmlns="http://www.w3.org/2000/svg" height="480" width="640" version="1" y="0" x="0" xmlns:cc="http://creativecommons.org/ns#" xmlns:dc="http://purl.org/dc/elements/1.1/">
 <metadata id="metadata3043">
  <rdf:RDF>
   <cc:Work rdf:about="">
    <dc:format>image/svg+xml</dc:format>
    <dc:type rdf:resource="http://purl.org/dc/dcmitype/StillImage"/>
   </cc:Work>
  </rdf:RDF>
 </metadata>
 <defs id="defs550">
  <clipPath id="clipPath15459" clipPathUnits="userSpaceOnUse">
   <rect id="rect15461" fill-opacity="0.67" height="512" width="682.67" y=".000011991" x="0"/>
  </clipPath>
 </defs>
 <g id="flag" fill-rule="evenodd" clip-path="url(#clipPath15459)" transform="matrix(.93750 0 0 .93750 0 -.000011241)" stroke-width="1pt">
  <rect id="rect551" height="512" width="992.13" y=".000013059" x="0" fill="#f00"/>
  <path id="path552" d="m0 512 992.12-170.67v170.67h-992.12z" fill="#090"/>
  <path id="path553" d="m0 512 992.12-341.33v170.67l-992.12 170.66z" fill="#fff"/>
  <path id="path554" d="m0 512v-512h330.71l-330.71 512z" fill="#009"/>
  <path id="path555" d="m0 512 330.71-512h330.71l-661.42 512z" fill="#ff0"/>
 </g>
</svg>
